X: 1
T:Flowers of Edinburgh
M:4/4
L:1/8
K:G
|:G2G2B2B2|d2ef g2fe|dcBA GFGA|B2G2E2D2|
G2G2B2B2|d2ef g2fe|dcBA GFGA|[1B2G2G2D2:|[2B2G2G4|:g2g2gbag|
f2f2fagf|edef gfed|B2e2e4|dBGB d2d2|
edef g2fe|dcBA GFGA|B2G2G4:|
